svg/current_ac.svg

<svg xmlns="http://www.w3.org/2000/svg" viewBox="0 0 24 24"><path d="M12.43 11C12.28 10.84 10 7 7 7s-4.68 3.18-5 4v2h9.57c.15.16 2.43 4 5.43 4s4.68-3.18 5-4v-2zM7 9c1.17 0 2.18.85 3 2H4.31c.47-.83 1.23-2 2.69-2m10 6c-1.17 0-2.18-.85-3-2h5.69c-.47.83-1.23 2-2.69 2"/></svg>

<?xml version="1.0" encoding="UTF-8"?><!DOCTYPE svg PUBLIC "-//W3C//DTD SVG 1.1//EN" "http://www.w3.org/Graphics/SVG/1.1/DTD/svg11.dtd"><svg xmlns="http://www.w3.org/2000/svg" xmlns:xlink="http://www.w3.org/1999/xlink" version="1.1" id="mdi-current-ac" width="24" height="24" viewBox="0 0 24 24"><path d="M12.43 11C12.28 10.84 10 7 7 7S2.32 10.18 2 11V13H11.57C11.72 13.16 14 17 17 17S21.68 13.82 22 13V11H12.43M7 9C8.17 9 9.18 9.85 10 11H4.31C4.78 10.17 5.54 9 7 9M17 15C15.83 15 14.82 14.15 14 13H19.69C19.22 13.83 18.46 15 17 15Z" /></svg>
